dist/icons/svgs/sun-bright-outline.svg

<svg xmlns="http://www.w3.org/2000/svg" width="24" height="24" fill="currentcolor" class="icon-sun-bright-outline" viewBox="0 0 24 24">
  <path d="M12.9375 2.9375V5.4375C12.9375 5.98438 12.5078 6.375 12 6.375C11.4531 6.375 11.0625 5.98438 11.0625 5.4375V2.9375C11.0625 2.42969 11.4531 2 12 2C12.5078 2 12.9375 2.42969 12.9375 2.9375ZM19.0703 6.25781L17.2734 8.05469C16.9219 8.40625 16.3359 8.40625 15.9453 8.05469C15.5938 7.66406 15.5938 7.07812 15.9453 6.72656L17.7422 4.92969C18.0938 4.57812 18.6797 4.57812 19.0703 4.92969C19.4219 5.32031 19.4219 5.90625 19.0703 6.25781ZM6.21875 4.92969L8.01562 6.72656C8.36719 7.07812 8.36719 7.66406 8.01562 8.05469C7.625 8.40625 7.03906 8.40625 6.6875 8.05469L4.92969 6.25781C4.53906 5.90625 4.53906 5.32031 4.92969 4.92969C5.28125 4.57812 5.86719 4.57812 6.21875 4.92969ZM2.9375 11.0625H5.4375C5.94531 11.0625 6.375 11.4922 6.375 12C6.375 12.5469 5.94531 12.9375 5.4375 12.9375H2.9375C2.39062 12.9375 2 12.5469 2 12C2 11.4922 2.39062 11.0625 2.9375 11.0625ZM18.5625 11.0625H21.0625C21.5703 11.0625 22 11.4922 22 12C22 12.5469 21.5703 12.9375 21.0625 12.9375H18.5625C18.0156 12.9375 17.625 12.5469 17.625 12C17.625 11.4922 18.0156 11.0625 18.5625 11.0625ZM8.01562 17.3125L6.21875 19.0703C5.86719 19.4609 5.28125 19.4609 4.92969 19.0703C4.53906 18.7188 4.53906 18.1328 4.92969 17.7812L6.6875 15.9844C7.03906 15.6328 7.625 15.6328 8.01562 15.9844C8.36719 16.375 8.36719 16.9609 8.01562 17.3125ZM17.2734 15.9844L19.0703 17.7812C19.4219 18.1328 19.4219 18.7188 19.0703 19.0703C18.6797 19.4609 18.0938 19.4609 17.7422 19.0703L15.9453 17.3125C15.5938 16.9609 15.5938 16.375 15.9453 15.9844C16.3359 15.6328 16.9219 15.6328 17.2734 15.9844ZM12.9375 18.5625V21.0625C12.9375 21.6094 12.5078 22 12 22C11.4531 22 11.0625 21.6094 11.0625 21.0625V18.5625C11.0625 18.0547 11.4531 17.625 12 17.625C12.5078 17.625 12.9375 18.0547 12.9375 18.5625ZM14.5 12C14.5 11.1406 13.9922 10.3203 13.25 9.85156C12.4688 9.42188 11.4922 9.42188 10.75 9.85156C9.96875 10.3203 9.5 11.1406 9.5 12C9.5 12.8984 9.96875 13.7188 10.75 14.1875C11.4922 14.6172 12.4688 14.6172 13.25 14.1875C13.9922 13.7188 14.5 12.8984 14.5 12ZM7.625 12C7.625 10.4375 8.44531 9.03125 9.8125 8.25C11.1406 7.42969 12.8203 7.42969 14.1875 8.25C15.5156 9.03125 16.375 10.4375 16.375 12C16.375 13.6016 15.5156 15.0078 14.1875 15.7891C12.8203 16.6094 11.1406 16.6094 9.8125 15.7891C8.44531 15.0078 7.625 13.6016 7.625 12Z"/>
</svg>

<svg xmlns="http://www.w3.org/2000/svg" width="24" height="24" fill="currentColor" class="icon-sun-bright-outline" viewBox="0 0 24 24">
  <path d="M12.938 2.938v2.5c0 .546-.43.937-.938.937-.547 0-.937-.39-.937-.937v-2.5c0-.508.39-.938.937-.938a.95.95 0 0 1 .938.938m6.132 3.32-1.797 1.797c-.351.351-.937.351-1.328 0-.351-.39-.351-.977 0-1.328l1.797-1.797c.352-.352.938-.352 1.328 0 .352.39.352.976 0 1.328M6.22 4.93l1.797 1.797c.351.351.351.937 0 1.328-.391.351-.977.351-1.328 0L4.93 6.258c-.39-.352-.39-.938 0-1.328a.92.92 0 0 1 1.289 0m-3.282 6.133h2.5a.95.95 0 0 1 .938.937c0 .547-.43.938-.937.938h-2.5C2.39 12.938 2 12.547 2 12c0-.508.39-.937.938-.937m15.626 0h2.5A.95.95 0 0 1 22 12c0 .547-.43.938-.937.938h-2.5c-.547 0-.938-.391-.938-.938 0-.508.39-.937.938-.937m-10.547 6.25L6.219 19.07a.856.856 0 0 1-1.29 0 .856.856 0 0 1 0-1.289l1.758-1.797c.352-.351.938-.351 1.329 0 .351.391.351.977 0 1.329m9.257-1.329 1.797 1.797a.92.92 0 0 1 0 1.29c-.39.39-.976.39-1.328 0l-1.797-1.759c-.351-.351-.351-.937 0-1.328.39-.351.977-.351 1.328 0m-4.335 2.579v2.5c0 .546-.43.937-.938.937-.547 0-.937-.39-.937-.937v-2.5c0-.508.39-.938.937-.938a.95.95 0 0 1 .938.938M14.5 12c0-.86-.508-1.68-1.25-2.148-.781-.43-1.758-.43-2.5 0C9.969 10.32 9.5 11.14 9.5 12a2.54 2.54 0 0 0 1.25 2.188c.742.43 1.719.43 2.5 0 .742-.47 1.25-1.29 1.25-2.188m-6.875 0c0-1.562.82-2.969 2.188-3.75 1.328-.82 3.007-.82 4.374 0 1.329.781 2.188 2.188 2.188 3.75 0 1.602-.86 3.008-2.187 3.79-1.368.82-3.047.82-4.376 0-1.367-.782-2.187-2.188-2.187-3.79"/>
</svg>
